X: 67
T: Polonäs ur Andreas Dahlgrens notbok nr 67
B: http://www.smus.se/earkiv/fmk/browselarge.php?lang=sw&katalogid=Ma+7&bildnr=00027
B: Andreas Dahlgrens notbok
O: Fågelvik, Tryserum, Småland
S: efter Andreas Dahlgren
R: Slängpolska
Z: Nils L
M: 3/4
L: 1/16
K: D
d2a2 a2g2 g2f2 | f2e2 e2d2 d2c2 | d2c2 B4 g4 | fedc d4 D4 ::
d4 f2d2 f2a2 | c4 e2c2 e2g2 | d4 f2d2 f2a2 | c4 e2c2 e2g2 |
f2ef g2eg f2ed | cdec d4 D4 :|

